SVG/ANC.svg

<svg xmlns="http://www.w3.org/2000/svg" width="226.777" height="226.777" viewBox="0 0 226.777 226.777"><path d="M181.224 171.715H45.763l-12.218 22.179c20.493 20.325 48.7 32.884 79.843 32.884 31.201 0 59.456-12.604 79.958-32.996l-12.122-22.067zM113.388 0C50.765 0 0 50.767 0 113.389c0 22.61 6.621 43.674 18.026 61.362L113.388 0zm113.389 113.389C226.777 50.767 176.011 0 113.388 0l95.254 174.916c11.471-17.722 18.135-38.845 18.135-61.527zm-145.694-6.457h64.712L113.388 47.68zm-23.109 42.386h111.001l-10.93-19.989H68.871z"/></svg>

<svg xmlns="http://www.w3.org/2000/svg" width="227px" height="227px" viewBox="0 0 227 227">
  <path d="M181.224,171.715 L45.763,171.715 L33.545,193.894 C54.038,214.219 82.245,226.778 113.388,226.778 C144.589,226.778 172.844,214.174 193.346,193.782 L181.224,171.715 Z M81.083,106.932 L145.795,106.932 L113.388,47.68 L81.083,106.932 Z M57.974,149.318 L168.975,149.318 L158.045,129.329 L68.871,129.329 L57.974,149.318 Z" id="Shape" fill="#000000" fill-rule="nonzero"></path>
  <path d="M226.777,113.389 C226.777,136.071 220.113,157.194 208.642,174.916 L113.388,0 C176.011,0 226.777,50.767 226.777,113.389 Z M113.388,0 L18.026,174.751 C6.621,157.063 0,135.999 0,113.389 C0,50.767 50.765,0 113.388,0 Z" id="Arches" fill="#797979"></path>
</svg>
